public/static/images/crosshair.svg

<?xml version="1.0" encoding="UTF-8" standalone="no"?>
<svg
   class="svg-icon"
   style="overflow:hidden;fill:currentColor"
   viewBox="0 0 35.000004 34.999996"
   version="1.1"
   id="svg4"
   sodipodi:docname="crosshair.svg"
   width="35.000004"
   height="34.999996"
   inkscape:version="1.2.1 (9c6d41e410, 2022-07-14)"
   xmlns:inkscape="http://www.inkscape.org/namespaces/inkscape"
   xmlns:sodipodi="http://sodipodi.sourceforge.net/DTD/sodipodi-0.dtd"
   xmlns="http://www.w3.org/2000/svg"
   xmlns:svg="http://www.w3.org/2000/svg">
  <defs
     id="defs8" />
  <sodipodi:namedview
     id="namedview6"
     pagecolor="#505050"
     bordercolor="#ffffff"
     borderopacity="1"
     inkscape:showpageshadow="0"
     inkscape:pageopacity="0"
     inkscape:pagecheckerboard="1"
     inkscape:deskcolor="#505050"
     showgrid="false"
     inkscape:zoom="1.0074671"
     inkscape:cx="545.92356"
     inkscape:cy="246.1619"
     inkscape:window-width="1920"
     inkscape:window-height="1017"
     inkscape:window-x="-8"
     inkscape:window-y="-8"
     inkscape:window-maximized="1"
     inkscape:current-layer="svg4" />
  <path
     d="m 33.250001,15.749937 h -1.8725 A 14,14.000471 0 0 0 19.250001,3.6220275 v -1.87256 a 1.7500001,1.7500591 0 0 0 -3.5,0 v 1.87256 A 14,14.000471 0 0 0 3.622501,15.749937 h -1.8725 a 1.750001,1.75006 0 0 0 0,3.50012 h 1.8725 a 14,14.000471 0 0 0 12.1275,12.12791 v 1.87256 a 1.7500001,1.7500591 0 0 0 3.5,0 v -1.87256 a 14,14.000471 0 0 0 12.1275,-12.12791 h 1.8725 a 1.750001,1.75006 0 0 0 0,-3.50012 z m -7,3.50012 h 1.5925 a 10.5,10.500353 0 0 1 -8.5925,8.59279 v -1.59255 a 1.7500001,1.7500591 0 0 0 -3.5,0 v 1.59255 a 10.5,10.500353 0 0 1 -8.5925,-8.59279 h 1.5925 a 1.750001,1.75006 0 0 0 0,-3.50012 h -1.5925 a 10.5,10.500353 0 0 1 8.5925,-8.5927895 v 1.59256 a 1.7500001,1.7500591 0 0 0 3.5,0 v -1.59256 a 10.5,10.500353 0 0 1 8.5925,8.5927895 h -1.5925 a 1.750001,1.75006 0 0 0 0,3.50012 z m -8.75,-3.50012 a 1.75,1.7500589 0 1 0 1.75,1.75007 1.75,1.7500589 0 0 0 -1.75,-1.75007 z"
     id="path2"
     style="fill:#ff0000;fill-opacity:1;stroke-width:0.0410163" />
</svg>

<svg xmlns="http://www.w3.org/2000/svg" width="35" height="35" class="svg-icon" style="overflow:hidden;fill:currentColor"><path d="M33.25 15.75h-1.872A14 14 0 0 0 19.25 3.622V1.749a1.75 1.75 0 0 0-3.5 0v1.873A14 14 0 0 0 3.623 15.75H1.75a1.75 1.75 0 0 0 0 3.5h1.873A14 14 0 0 0 15.75 31.378v1.873a1.75 1.75 0 0 0 3.5 0v-1.873A14 14 0 0 0 31.378 19.25h1.872a1.75 1.75 0 0 0 0-3.5zm-7 3.5h1.593a10.5 10.5 0 0 1-8.593 8.593V26.25a1.75 1.75 0 0 0-3.5 0v1.593a10.5 10.5 0 0 1-8.592-8.593H8.75a1.75 1.75 0 0 0 0-3.5H7.158a10.5 10.5 0 0 1 8.592-8.593V8.75a1.75 1.75 0 0 0 3.5 0V7.157a10.5 10.5 0 0 1 8.593 8.593H26.25a1.75 1.75 0 0 0 0 3.5zm-8.75-3.5a1.75 1.75 0 1 0 1.75 1.75 1.75 1.75 0 0 0-1.75-1.75z" style="fill:red;fill-opacity:1;stroke-width:.0410163"/></svg>
